icon-svg/ikea-tokabo.svg

<svg xmlns="http://www.w3.org/2000/svg" viewBox="0 0 24 24"><path fill="#44739e" d="M12.002 2.01a9.56 9.56 0 0 1 6.213 1.937 6.23 6.23 0 0 1 1.799 3.991 11.3 11.3 0 0 1 .054 2.799 3.14 3.14 0 0 1-1.799 2.43A13.66 13.66 0 0 1 12 14.366a13.66 13.66 0 0 1-6.268-1.199 3.14 3.14 0 0 1-1.799-2.43 11.2 11.2 0 0 1 .053-2.799 6.23 6.23 0 0 1 1.8-3.991 9.57 9.57 0 0 1 6.216-1.937m5.663 11.911a29 29 0 0 1-.152 4.329 2.23 2.23 0 0 1-1.137 1.826 9.24 9.24 0 0 1-4.374.9 9.24 9.24 0 0 1-4.373-.9 2.3 2.3 0 0 1-.456-.332l-.007-.006a2.38 2.38 0 0 1-.675-1.488 29 29 0 0 1-.15-4.328 15.5 15.5 0 0 0 5.661.875 15.5 15.5 0 0 0 5.663-.875m-1.164 6.575a2.4 2.4 0 0 1-.245.41 3.16 3.16 0 0 1-1.513.769 10.6 10.6 0 0 1-2.71.323 10.7 10.7 0 0 1-2.705-.322 3.2 3.2 0 0 1-1.525-.761 2.4 2.4 0 0 1-.237-.385 9.8 9.8 0 0 0 4.436.874 9.7 9.7 0 0 0 4.499-.907"/></svg>

<?xml version="1.0" encoding="UTF-8" standalone="no"?>
<svg width="24" height="24" version="1.1" viewBox="0 0 24 24" xmlns="http://www.w3.org/2000/svg">
  <path style="fill: #44739e" d="m 12,2 a 9.555,9.555 0 0 1 6.214,1.938 6.227,6.227 0 0 1 1.8,3.992 11.326,11.326 0 0 1 0.054,2.8 3.138,3.138 0 0 1 -1.8,2.43 13.663,13.663 0 0 1 -6.27,1.2 13.658,13.658 0 0 1 -6.27,-1.2 3.138,3.138 0 0 1 -1.8,-2.43 11.23,11.23 0 0 1 0.054,-2.8 6.229,6.229 0 0 1 1.8,-3.992 A 9.569,9.569 0 0 1 12,2 m 5.664,11.914 a 29.115,29.115 0 0 1 -0.152,4.331 2.227,2.227 0 0 1 -1.137,1.826 9.245,9.245 0 0 1 -4.375,0.9 9.243,9.243 0 0 1 -4.375,-0.9 2.324,2.324 0 0 1 -0.456,-0.332 L 7.162,19.733 A 2.379,2.379 0 0 1 6.487,18.245 28.974,28.974 0 0 1 6.337,13.915 15.454,15.454 0 0 0 12,14.791 15.465,15.465 0 0 0 17.664,13.915 M 16.5,20.492 a 2.431,2.431 0 0 1 -0.245,0.41 v 0 0 a 3.159,3.159 0 0 1 -1.514,0.769 10.624,10.624 0 0 1 -2.71,0.324 A 10.645,10.645 0 0 1 9.325,21.672 3.185,3.185 0 0 1 7.8,20.911 v 0 0 A 2.418,2.418 0 0 1 7.562,20.526 9.788,9.788 0 0 0 12,21.4 9.7,9.7 0 0 0 16.5,20.493" />
</svg>
